X:2719
T:Humours of Tulla, The
O:england
R:reel
S:Madison WI sessions
N:transcribed by Alan Ng
E:13
M:C|
K:D
d2Ad BdAc|d2fd edBc|d2Ad Bd A2|1 (3Bcd ef g2 ec:|2 Bdef g2fg||
|:af ~f2 df ~f2|af ~f2 g2 fg|af ~f2 dfed|1 (3Bcd ef g2fg:|2 Bdef g2fe|]
\bigskip


